assets/images/flags/1x1/tz.svg

<?xml version="1.0" encoding="UTF-8" standalone="no"?>
<!-- Created with Sodipodi ("http://www.sodipodi.com/") -->
<!-- /Creative Commons Public Domain -->
<!--
<rdf:RDF xmlns="http://web.resource.org/cc/"
    xmlns:dc="http://purl.org/dc/elements/1.1/"
    xmlns:rdf="http://www.w3.org/1999/02/22-rdf-syntax-ns#">
<Work rdf:about="">
   <dc:title>SVG graphic of Tanzanian flag</dc:title>
   <dc:rights><Agent>
      <dc:title>Russell Cloran</dc:title>
   </Agent></dc:rights>
   <license rdf:resource="http://web.resource.org/cc/PublicDomain" />
</Work>

<License rdf:about="http://web.resource.org/cc/PublicDomain">
   <permits rdf:resource="http://web.resource.org/cc/Reproduction" />
   <permits rdf:resource="http://web.resource.org/cc/Distribution" />
   <permits rdf:resource="http://web.resource.org/cc/DerivativeWorks" />
</License>

</rdf:RDF>
-->
<svg id="svg548" xmlns:rdf="http://www.w3.org/1999/02/22-rdf-syntax-ns#" xmlns="http://www.w3.org/2000/svg" height="512" width="512" version="1" y="0" x="0" xmlns:cc="http://creativecommons.org/ns#" xmlns:dc="http://purl.org/dc/elements/1.1/">
 <metadata id="metadata4166">
  <rdf:RDF>
   <cc:Work rdf:about="">
    <dc:format>image/svg+xml</dc:format>
    <dc:type rdf:resource="http://purl.org/dc/dcmitype/StillImage"/>
   </cc:Work>
  </rdf:RDF>
 </metadata>
 <defs id="defs550">
  <clipPath id="clipPath5123" clipPathUnits="userSpaceOnUse">
   <rect id="rect5125" fill-opacity="0.67" height="496.06" width="496.06" y=".0000083063" x="102.87"/>
  </clipPath>
 </defs>
 <g id="flag" clip-path="url(#clipPath5123)" transform="matrix(1.0321 0 0 1.0321 -106.17 -.0000085732)">
  <g id="g589" fill-rule="evenodd" stroke-width="1pt" transform="matrix(4.1339 0 0 4.1339 0 -.000015259)">
   <rect id="rect583" height="120" width="180" y="0" x="0" fill="#09f"/>
   <path id="path584" d="m0 0h180l-180 120v-120z" fill="#090"/>
   <path id="path586" d="m0 120h40l140-95v-25h-40l-140 95v25z"/>
   <path id="path587" d="m0 91.456 137.18-91.456h13.52l-150.7 100.47v-9.014z" fill="#ff0"/>
   <path id="path588" d="m-0.7049 95.47 150.7-100.47v9.014l-137.18 91.456h-13.521z" transform="translate(30,24.53)" fill="#ff0"/>
  </g>
 </g>
</svg>

<svg id="svg548" xmlns="http://www.w3.org/2000/svg" height="512" width="512" version="1" y="0" x="0"><defs id="defs550"><clipPath id="clipPath5123" clipPathUnits="userSpaceOnUse"><path id="rect5125" fill-opacity=".67" d="M102.87 0h496.06v496.06H102.87z"/></clipPath></defs><g id="flag" clip-path="url(#clipPath5123)" transform="translate(-106.17) scale(1.0321)"><g id="g589" fill-rule="evenodd" stroke-width="1pt" transform="scale(4.1339)"><path id="rect583" fill="#09f" d="M0 0h180v120H0z"/><path id="path584" d="M0 0h180L0 120V0z" fill="#090"/><path id="path586" d="M0 120h40l140-95V0h-40L0 95v25z"/><path id="path587" d="M0 91.456L137.18 0h13.52L0 100.47v-9.014z" fill="#ff0"/><path id="path588" d="M-.705 95.47L149.995-5v9.014L12.815 95.47H-.705z" transform="translate(30 24.53)" fill="#ff0"/></g></g></svg>
